X:21
T:Berkeley Castle
M:C
L:1/8
B:Thompson's Compleat Collection of 200 Favourite Country Dances, vol. 3 (London, 1773)
Z:Transcribed and edited by Flynn Titford-Mock, 2007
Z:abc's:AK/Fiddler's Companion
K:G
G>A | B2 A>B G2 g>f | g2 d>B c2 e>c | A2 d>B G2 cB | AGFE D2 G>A | B2 A>B G2 g>f |
gdBG c2 A>c | B>gd>B c>AF>A | G2 G>G G2::B>c | d2 B>c d2 e>f | g2 e>f g2 B>c |
d2 B>c d2 cB | AGFE D2 B>c | d2 B>c d2 e>f | g2 e>f g2 A>c | B>gd>B c>AF>A | G2 G>G G2 :|

